X: 2023
T: LORD ALEXr GORDON
R: Strathspey.
%R: strathspey
B: James Kerr "Merry Melodies" v.2 p.5 #23
Z: 2016 John Chambers <jc:trillian.mit.edu>
M: C
L: 1/8
K: A
uc |\
A,>A (Ac/d/) ve>vA c2 | ve>ue f/e/d/c/ d<BB>uc |\
vA,>vA (Ac/d/) ve>vA c2 | (3fga (3efd c<AA :|
|: uE |\
(C<E) (EF/G/) vA>vE A2 | (F<B) B>c d>cB>A |\
(3cde (3fga f>ed>c | (3Bcd (3efd c<A A :|
